!!!!SEGMENT: pl-wnifc--493-n--013_oginski-michal-kleofas--16-polonaises-13-a-trois-mains.krn
!!!cenid: 18xx:3872
!!!COM: Ogiński, Michał Kleofas
!!!COM-rismID: pe30002379
!!!CDT: 1765/09/25-1833/10/15
!!!CNT:
!!!OTL: 16 Polonaises
!!!PDT: 1864
!!!AGN:
!!!SMS-siglum: PL-Wnifc
!!!SMS-shelfmark: 493/n
!!!SMS-shelfwork: 013 W
!!!SMS-variant:
!!!SMS-altvar:
!!!NIFC-rismSourceID: 1001157350
!!!NIFC-rismChildID: 1001157365
!!!NIFC-islandoraID: nifc:212371
!!!URL-pdf-islandora: https://repozytorium.nifc.pl/islandora/object/nifc%3A212371/datastream/PDF/view
!!!URL-scan: https://polish.musicsources.pl/pl/lokalizacje/galeria/druki-muzyczne/16843 @EN{Scan on Polish Music Sources Website} @PL{Skany w portalu Dziedzictwo Muzyki Polskiej w otwartym dostępie}
!!!IIIF:
!!!ONB-nifc: UWAGA: w zbiorze znajduje się 14 Polonezów z Triami, pliki są numerowane jak w źródle.
!!!AIN: 3 piano
!!!key: G
!!!OMD:
!!!OMD-mod: Moderato
**kern	**kern	**dynam	**kern	**dynam
*part3	*part2	*part2	*part1	*part1
*staff3	*staff2	*	*staff1	*
*I"Piano.	*I"Piano.	*	*I"[Piano.]	*
*mI"Pianoforte	*mI"Pianoforte	*	*mI"[Pianoforte]	*
*I'[pf]	*I'[pf]	*	*I'[pf]	*
*Ipiano	*Ipiano	*	*Ipiano	*
*ICklav	*ICklav	*	*ICklav	*
*clefF4	*clefG2	*	*clefG2	*
*k[f#]	*k[f#]	*	*k[f#]	*
*G:	*G:	*	*G:	*
*M3/4	*M3/4	*	*M3/4	*
=1	=1	=1	=1	=1
!	!	!	!LO:TX:a:B:t=Moderato.:mod=	!
4G 4GG/	8gL 8B/	f	4r	.
.	16.d/L	.	.	.
.	32d/JJk	.	.	.
8r	4f# 4A/	.	8r	.
16.DLL 16.DD/	.	.	16.dddLL 16.dd\	f
32DJJk 32DD/	.	.	32dddJJk 32dd\	.
8DL 8DD/	4r	.	8dddL 8dd\	.
8DJ 8DD/	.	.	8dddJ 8dd\	.
=2	=2	=2	=2	=2
4G 4GG/	8gL 8B/	.	4r	.
.	16.d/L	.	.	.
.	32d/JJk	.	.	.
8r	4f# 4A/	.	8r	.
16.DLL 16.DD/	.	.	16.dddLL 16.dd\	.
32DJJk 32DD/	.	.	32dddJJk 32dd\	.
8DL 8DD/	4r	.	8dddL 8dd\	.
8DJ 8DD/	.	.	8dddJ 8dd\	.
=3	=3	=3	=3	=3
!	!	!	!LO:MO:mod=!null:null	!
!	!	!	!LO:TX:b:i:t=con espressione.	!
!	!LO:MO:mod=!LO&colon;TX&colon;a&colon;i&colon;t=con espressione	!	!	!
!	!null	!	!	!
[2.G [2.GG/	16bLL 16g/	p <	2.r	.
.	16d/	.	.	.
.	16b 16g/	.	.	.
.	16d/JJ	.	.	.
.	16bLL 16g#X/	.	.	.
.	16d/	.	.	.
.	16cc 16a/	.	.	.
.	16d/JJ	.	.	.
.	16cc#XLL 16a#X/	.	.	.
.	16d/	.	.	.
.	16dd 16b/	.	.	.
.	16d/JJ	[[	.	.
!!LO:LB:g=original
=4	=4	=4	=4	=4
2G] 2GG/]	16eeLL 16ccn/	>	2.r	.
.	16d/	.	.	.
.	16dd 16b/	.	.	.
.	16d/JJ	.	.	.
.	16ccLL 16a/	.	.	.
.	16d/	.	.	.
.	16b 16g/	.	.	.
.	16d/JJ	.	.	.
4r	16aLL 16f#/	.	.	.
.	16d/	.	.	.
.	16b 16g/	.	.	.
.	16d/JJ	]]	.	.
=5	=5	=5	=5	=5
2D 2DD/	16aLL 16f#/	.	2.r	.
.	16d/	.	.	.
.	16b 16g#X/	.	.	.
.	16d/JJ	.	.	.
.	16ccLL 16a/	.	.	.
.	16d/	.	.	.
.	16a 16f#/	.	.	.
.	16d/JJ	.	.	.
4r	16bLL 16gn/	.	.	.
.	16d/	.	.	.
.	16dd 16b/	.	.	.
.	16d/JJ	.	.	.
=6	=6	=6	=6	=6
4D 4DD/	16aLL 16f#'/	.	2.r	.
.	(16a/	.	.	.
.	16cc/	.	.	.
.	16b/JJ	.	.	.
4r	16a/LL	.	.	.
.	16g/	.	.	.
.	16f#/	.	.	.
.	16e/JJ	.	.	.
4r	16d/LL	.	.	.
.	16c/	.	.	.
.	16B/	.	.	.
.	16A/JJ)	.	.	.
!!LO:LB:g=original
!LO:TX:b:t=[segno]	!LO:TX:t=[segno]	!	!LO:TX:t=[segno]	!
=7||	=7||	=7||	=7||	=7||
!	!	!	!LO:MO:mod=!LO&colon;TX&colon;b&colon;i&colon;t=dolce	!
!	!	!	!LO:TX:b:i:t=dolce.	!
8G\L	16B/LL	p	(16ccc\LL	p
.	16d/	.	16bb\	.
8D\	16g/	.	16aa#X\	.
.	16d/JJ	.	16bb\JJ)	.
8G\	16B/LL	.	4.gg\	.
.	16d/	.	.	.
8D\	16g/	.	.	.
.	16d/JJ	.	.	.
8G\	16B/LL	.	.	.
.	16d/	.	.	.
8D\J	16g/	.	(16aa#\LL	.
.	16d/JJ	.	16bb\JJ)	.
=8	=8	=8	=8	=8
8A\L	16c/LL	>	(16ddd\LL	>
.	16d/	.	16ccc\	.
8D\	16f#/	.	16bb\	.
.	16d/JJ	]	16ccc\JJ)	]
8F#\	16c/LL	>	(16bb\LL	>
.	16d/	.	16aa\	.
8D\	16f#/	.	16gg#X\	.
.	16d/JJ	]	16aa\JJ)	]
8F#\	16c/LL	>	(16ggn\LL	>
.	16d/	.	16ff#\	.
8D\J	16f#/	.	16ee\	.
.	16d/JJ	]	16dd\JJ)	]
=9	=9	=9	=9	=9
8G\L	16B/LL	<	8dd\L	<
.	16d/	.	.	.
8D\	16g/	.	(16gg\L	.
.	16d/JJ	.	16ff#\JJ)	.
8G\	16B/LL	.	(16aa\LL	.
.	16d/	.	16gg\)	.
8D\	16g/	.	(16bb\	.
.	16d/JJ	.	16aa\JJ)	.
8G\	16B/LL	.	(16ccc\LL	.
.	16d/	.	16bb\)	.
8D\J	16g/	.	(16ddd\	.
.	16d/JJ	.	16ccc\JJ)	.
!!LO:LB:g=original
=10	=10	=10	=10	=10
8A\L	16c/LL	f	(16ddd\LL	f >
.	16d/	.	16ccc#X\	.
8D\J	16f#/	.	16cccn\	.
.	16d/JJ	.	16bb\JJ)	.
8F#\L	16c/LL	.	(16aa\LL	.
.	16d/	.	16gg\	.
8D\	16f#/	.	16ff#\	.
.	16d/JJ	.	16ee\JJ)	]
8F#\	16c/LL	>	(16dd\LL	>
.	16d/	.	16ddd\	.
8D\J	16f#/	.	16ccc#X\	.
.	16d/JJ	]]	16cccn\JJ)	]
=11	=11	=11	=11	=11
8GL 8GG\	16B/LL	p	8bb'\L	p
.	16b/	.	.	.
8F# 8FF#\	16A#X/	.	8aa#X'\	.
.	16a#X/JJ	.	.	.
8G 8GG\	16B/LL	.	8bb'\	.
.	16b/	.	.	.
8F# 8FF#\	16An/	.	8aan'\	.
.	16an/JJ	.	.	.
!	!	!	!LO:MO:mod=!null:null	!LO:MO:mod=!null:null
!	!	!	!LO:TX:b:t=cres.-:problem:dynamics with extension lines	!LO:HP:b:t=cres.-:ext=cd
8E 8EE\	16G</LL	<	8gg'\	<
.	16g/	.	.	.
8D#XJ 8DD#X\	16F#</	.	8ff#'\J	.
.	16f#/JJ	.	.	.
=12	=12	=12	=12	=12
8EL 8EE\	16G</LL	.	8gg'\L	.
.	16g/	.	.	.
8D#X 8DD#X\	16F#</	.	8ff#'\	.
.	16f#/JJ	.	.	.
8E 8EE\	16G</LL	.	8gg'\	.
.	16g/	.	.	.
8Dn 8DDn\	16F#</	.	8ff#'\	.
.	16f#/JJ	.	.	.
8C 8CC\	16E</LL	.	8ee'\	.
.	16e/	.	.	.
!	!	!	!	!LO:MO:null:mod=.
8BBJ 8BBB\	16D#X</	.	8dd#X'\J	[[
.	16d#X/JJ	.	.	.
!!LO:PB:g=original
=13	=13	=13	=13	=13
!	!LO:TX:t=P:problem:mixed beam	!	!	!
8C 8CC\	16E</LL	f	8ee\L	f
.	16e\	.	.	.
8AAL 8AAA/	16e\	.	8eee 8ccc\	.
.	16eeJJ 16cc\	.	.	.
8GG#X 8GGG#X/	16ddLL 16b/	.	8ddd 8bb\	.
.	16e/	.	.	.
8AA 8AAA/	16cc 16a/	.	8ccc 8aa\	.
.	16e/JJ	.	.	.
8BB 8BBB/	16bLL 16g#X/	.	8bb 8gg#X 8dd\	.
.	16e/	.	.	.
8CJ 8CC/	16a 16e/	.	8aaJ 8ee 8cc\	.
.	16c/JJ	.	.	.
=14	=14	=14	=14	=14
8DL 8DD/	16dLL 16B/	.	8ggnL 8dd 8b\	.
.	16g/	.	.	.
8DD/	16d 16c/	.	8aa 8dd 8cc\	.
.	16f#/JJ	.	.	.
8GG/	16dLL 16B/	.	8gg 8dd 8b\	.
.	16g/	.	.	.
8DD/J	16d 16c/	.	8aaJ 8dd 8cc\	.
.	16f#/JJ	.	.	.
!	!LO:MO:mod=!LO&colon;TX&colon;b&colon;i&colon;t=Fine	!	!LO:MO:mod=!LO&colon;TX&colon;a&colon;i&colon;t=Fine	!
!	!LO:TX:b:i:t=Fine.	!	!LO:TX:b:i:t=Fine.	!
4GG/	4g 4d 4B/	.	4gg 4dd 4b\	.
=15:|!|:	=15:|!|:	=15:|!|:	=15:|!|:	=15:|!|:
*	*clefF4	*	*	*
8DD/L	8D\L	f	4.dd\	f <
16FF#/L	16F#\L	.	.	.
16AA/JJ	16A\JJ	.	.	.
8D/L	8d\L	.	.	.
8D/	8d\	.	(16ee\LL	.
.	.	.	16ff#\JJ	.
8C#X/	8c#X\	.	16gg\LL	.
.	.	.	16aa\	.
8D/J	8d\J	.	16bb\	.
.	.	.	16ccc#X\JJ)	[[
!!LO:LB:g=original
=16	=16	=16	=16	=16
8Cn/L	8cn\L	.	(4.ddd\	.
8D/J	8d\J	.	.	.
8AA/L	8A\L	>	.	.
8D/J	8d\J	.	16cccn\LL	>
.	.	.	16bb\JJ	.
8FF#/L	8F#\L	.	16ddd\LL	.
.	.	.	16ccc\	.
8D/J	8d\J	]]	16bb\	.
.	.	.	16aa\JJ)	]]
=17	=17	=17	=17	=17
(16.C#X/LL	(16.c#X\LL	f >	(16.ccc#X\LL	f >
32D/K	32d\K	.	32ddd\K	.
16.E/	16.e\	.	16.eee\	.
32D/JJk)	32d\JJk)	]	32ddd\JJk)	]
(16.AA#X/LL	(16.A#X\LL	>	(16.aa#X\LL	>
32BB/K	32B\K	.	32bb\K	.
16.Cn/	16.cn\	.	16.cccn\	.
32BB/JJk)	32B\JJk)	]	32bb\JJk)	]
(16.FF#/LL	(16.F#\LL	>	(16.ff#\LL	>
32GG/K	32G\K	.	32gg\K	.
16.AAn/	16.An\	.	16.aan\	.
32GG/JJk)	32G\JJk)	]	32gg\JJk)	]
=18	=18	=18	=18	=18
!	!	!	!LO:SIC:s=8ddd\:v	!
!	!	!	!	!LO:MO:mod=f
8D\	8d\	f	8ddd\L	f >
*	*clefG2	*	*	*
!	!	!	!LO:SIC:s=16.ddd\L:v	!
!	!	!	!	!LO:MO:null:mod=>
16.DLL 16.DD/	16.ddLL 16.d/	>	16.ddd\L	.
32DJJk 32DD/	32ddJJk 32d/	.	32ddd\J	.
8DL 8DD/	8ddL 8d/	.	8ddd\L	.
8D 8DD/	8dd 8d/	.	8ddd\	.
8D 8DD/	8dd 8d/	.	8ddd\	.
8DJ 8DD/	8ddJ 8d/	]	8ddd\J	]
*	*clefF4	*	*	*
!!LO:LB:g=original
=19	=19	=19	=19	=19
8DD/L	8D\L	p	8dd\L	p
16FF#/L	16F#\L	.	8dd\J	.
16AA/JJ	16A\JJ	.	.	.
8D\	8d\L	.	8ff#L 8dd\	.
8DL 8DD/	8d\	.	8ff#J 8dd\	.
8D 8DD/	8c#X\	.	8ggL 8ee\	.
8DJ 8DD/	8c#\J	.	8ggJ 8ee\	.
=20	=20	=20	=20	=20
!	!LO:MO:mod=!null:null	!LO:MO:mod=!null:null	!LO:MO:mod=!null:null	!LO:MO:mod=!null:null
!	!LO:TX:b:t=cresc.-:problem:dynamics with extension lines	!LO:HP:t=cresc.-:ext=cd	!LO:TX:b:t=cresc.-:problem:dynamics with extension lines	!LO:HP:t=cresc.-:ext=cd
8DL 8DD/	8cn\L	<	8aaL 8ff#\	<
8D 8DD/	8c\J	.	8aaJ 8ff#\	.
*	*clefG2	*	*	*
8D 8DD/	8gL 8B-X/	.	8bb-XL 8gg\	.
8D 8DD/	8gJ 8d 8B-/	.	8bb-J 8gg\	.
8D 8DD/	8gL 8e 8B-/	.	8ccc#XL 8bb- 8gg\	.
!	!	!LO:MO:null:mod=.	!	!LO:MO:null:mod=.
8DJ 8DD/	8gJ 8e 8B-/	[[	8ccc#J 8bb- 8gg\	[[
=21	=21	=21	=21	=21
8DL 8DD/	8f#L 8d 8A/	ff	8dddL 8aa 8ff#\	ff
8C#XJ 8CC#X/	8gJ 8e 8B-X/	.	8eee 8bb-X 8gg\	.
8DL 8DD/	8f#L 8d 8A/	.	8ddd 8aa 8ff#\	.
8C#J 8CC#/	8gJ 8e 8B-/	.	8eee 8bb- 8gg\	.
8DL 8DD/	8f#L 8d 8A/	.	8ddd 8aa 8ff#\	.
8C#J 8CC#/	8gJ 8e 8B-/	.	8eeeJ 8bb- 8gg\	.
=22	=22	=22	=22	=22
4D 4DD/	4f# 4d 4A/	.	8ddd 8aa 8ff#\	.
.	.	.	(16dd\LL	<
.	.	.	16ee\JJ	.
4r	4r	.	16ff#\LL	.
.	.	.	16gg\	.
.	.	.	16aa\	.
.	.	.	16bbn\JJ	.
4r	4r	.	16ccc\LL	.
.	.	.	16bb\	.
.	.	.	16eee\	.
.	.	.	16ddd\JJ)	[[
!!LO:LB:g=original
=23	=23	=23	=23	=23
2.r	2.r	.	(16ccc\LL	>
.	.	.	16bb\	.
.	.	.	16aa\	.
.	.	.	16gg\JJ	.
.	.	.	16ff#\LL	.
.	.	.	16ee\	.
.	.	.	16dd\	.
.	.	.	16cc\JJ	.
.	.	.	16b/LL	.
.	.	.	16a/	.
.	.	.	16g/	.
.	.	.	16f#/JJ)	]]
=24	=24	=24	=24	=24
2.r	2.r	.	32e/	.
.	.	.	(32d/LLL	p <
.	.	.	32c#X/	.
.	.	.	32d/JJJ	.
.	.	.	32d#X/LLL	.
.	.	.	32e/	.
.	.	.	32fn/	.
.	.	.	32f#X/JJJ	.
.	.	.	32g/LLL	.
.	.	.	32g#X/	.
.	.	.	32a/	.
!	!	!	!	!LO:MO:null:mod=[
.	.	.	32a#X/JJJ	.
!	!	!	!	!LO:MO:null:mod=.
.	.	.	32b\LLL	[
.	.	.	32ccn\	.
.	.	.	32cc#X\	.
.	.	.	32ddn\JJJ	.
!LO:MO:mod=!null:null	!	!	!	!
!LO:TX:b:i:t=Dal Segno \n al Fine.	!	!	!LO:TX:a:i:t=ritard.	!
.	.	.	32dd#X\LLL	>
.	.	.	32ee\	.
.	.	.	32ffn\	.
.	.	.	32ff#X\JJJ	.
!	!	!	!LO:MO:mod=!LO&colon;TX&colon;a&colon;i&colon;t=D.S. al Fine	!
!	!	!	!null	!
!LO:MO:mod=!LO&colon;TX&colon;a&colon;i&colon;t=D.S. al Fine	!	!	!	!
!null	!	!	!	!
.	.	.	32ggn\LLL	.
.	.	.	32gg#X\	.
.	.	.	32aan\	.
.	.	.	32aa#X\JJJ)	]]
!!LO:PB:g=original
!LO:TX:b:t=[segno]	!LO:TX:t=[segno]	!	!LO:TX:t=[segno]	!
==25	==25	==25	==25	==25
*M3/4	*M3/4	*	*M3/4	*
!!!OMD:
!!!OMD-mod: Trio
!	!	!	!LO:MO:mod=!null:null	!
!	!LO:TX:a:t=Trio.:mod=	!	!LO:TX:a:i:t=dolce.	!LO:DY:a
!	!	!	!	!LO:MO:mod=!null:null
.	.	.	8qdd/	p
!	!	!	!LO:MO:mod=!LO&colon;TX&colon;a&colon;i&colon;t=dolce	!
!	!	!	!null	!
!	!	!	!	!LO:MO:mod=p >
4G\	(8bL 8g/	p	(8.ddd\L	>
.	8d/J)	.	.	.
.	.	.	32bb\LL	.
.	.	.	.	.
.	.	.	32gg\JJJ)	.
4r	(8bL 8g/	.	4dd\	]
.	8d/J)	.	.	.
4G\	(8bL 8g/	.	4r	.
.	8d/J)	.	.	.
=26	=26	=26	=26	=26
4F#\	(8ccL 8a/	.	(16ddd\LL	>
.	.	.	16ccc\	.
.	8d/J)	.	16aa\	.
.	.	.	16ff#\JJ)	.
4r	(8ccL 8a/	.	4dd\	]
.	8d/J)	.	.	.
4F#\	(8ccL 8a/	.	4r	.
.	8d/J)	.	.	.
=27	=27	=27	=27	=27
4G\	(8B/L	.	(8.ee\L	>
.	8d/J)	.	.	.
.	.	.	16dd\Jk)	.
4r	(8B/L	.	4b\	]
.	8d/J)	.	.	.
4GG/	(8B/L	.	4r	.
.	8d/J)	.	.	.
=28	=28	=28	=28	=28
4FF#/	(8cL 8A/	.	(16ee\LL	>
.	.	.	16dd\	.
.	8d/J)	.	16cc#X\	.
.	.	.	16ccn\JJ)	.
4r	(8cL 8A/	.	4a/	]
.	8d/J)	.	.	.
4FF#/	(8cL 8A/	.	4r	.
.	8d/J)	.	.	.
!!LO:LB:g=original
=29	=29	=29	=29	=29
8GG\L	8B/L	f	16ddd'\LL	f
.	.	.	16ccc'\	.
!	!LO:MO:mod=*clefF4:null	!	!	!
*	*null	*	*	*
8BB\J	8G<J 8D</	.	16bb'\	.
.	.	.	16aa'\JJ	.
8BB\L	8G<L 8D</	.	16gg'\LL	.
.	.	.	16ff#'\	.
8BB\	8G< 8D</	.	16ee'\	.
.	.	.	16dd'\JJ	.
8BB\	8G< 8D</	.	16cc'/LL	.
.	.	.	16b'/	.
8BB\J	8G<J 8D</	.	16a'/	.
.	.	.	16g'/JJ	.
=30	=30	=30	=30	=30
8C\L	8G<L 8E</	.	8e\L	.
!	!LO:MO:mod=*clefG2:null	!	!	!
*	*null	*	*	*
8C\J	8gJ 8e 8c/	.	[8ggg^\J	.
8C\L	8gL 8e 8c/	.	16ggg\LL]	.
.	.	.	(16fff#\	.
8C\	8g 8e 8c/	.	16aaa\	.
.	.	.	16ggg\JJ	.
8C\	8g 8e 8c/	.	16fff#\LL	.
.	.	.	16eee\	.
8C\J	8gJ 8e 8c/	.	16ddd\	.
.	.	.	16ccc\JJ)	.
=31	=31	=31	=31	=31
8D\L	8gL 8d 8B/	.	(16bb\LL	.
.	.	.	16ccc\	.
8D\	8g 8d 8B/	.	16ddd#X\	.
.	.	.	16eee\JJ)	.
8D\	8g 8d 8B/	.	(16eee\LL	.
!	!	!	!LO:SIC:s=16ddd\:v	!
.	.	.	16ddd#\	.
!	!	!	!LO:SIC:s=16ccc\:v	!
8D\J	8gJ 8d 8B/	.	16cccn\	.
.	.	.	16bb\JJ)	.
!	!	!	!LO:SIC:s=(16ddd\LL:v	!
8DD/L	8f#L 8d 8c/	.	(16ddd#\LL	.
.	.	.	16ccc\	.
8DD/J	8f#J 8d 8c/	.	16bb\	.
.	.	.	16aa\JJ)	.
!!LO:LB:g=original
=32	=32	=32	=32	=32
8GG/L	8gL 8d 8B/	.	(16gg\LL	.
.	.	.	16bb\)	.
8DD/J	8aJ 8f# 8d 8c/	.	(16aa\	.
.	.	.	16ff#\JJ)	.
8r	4a 4f# 4d 4c/	.	(4ff#\	.
8DD/L	.	.	.	.
8GG/J	8g 8d 8B/	.	8gg\)	.
8r	8r	.	8r	.
=33:|!	=33:|!	=33:|!	=33:|!	=33:|!
8cL 8A\	(16d/LL	p	4r	.
.	16f#/	.	.	.
8D\	16a/	.	.	.
.	16cc#X/JJ)	.	.	.
8c 8A\	4dd\	.	8r	.
8D\	.	.	8ddd\	p
.	.	.	(32qqeee/LLL	.
.	.	.	32qqddd/	.
.	.	.	32qqccc#X/JJJ	.
8c 8A\	4r	.	4ddd\)	.
8D\J	.	.	.	.
=34	=34	=34	=34	=34
8BL 8G\	(16d/LL	.	4r	.
.	16g/	.	.	.
8D\	16b/	.	.	.
.	16cc#X/JJ)	.	.	.
8B 8G\	4dd\	.	8r	.
8D\	.	.	8ddd\	.
.	.	.	(32qqeee/LLL	.
.	.	.	32qqddd/	.
.	.	.	32qqccc#X/JJJ	.
8B 8G\	4r	.	4ddd\)	.
8D\J	.	.	.	.
=35	=35	=35	=35	=35
8cL 8A\	(16ccc\LL	.	4r	.
.	16aa\	.	.	.
8D\	16ff#\	.	.	.
.	16dd\JJ)	.	.	.
8c 8A\	(16ee-X\LL	<	8r	.
.	16dd\	.	.	.
8D\	16een\	.	8ddd\	.
.	16dd\JJ)	.	.	.
.	.	.	(32qqeee/LLL	.
.	.	.	32qqddd/	.
.	.	.	32qqccc#X/JJJ	.
8c 8A\	(16ffn\LL	.	4ddd\)	.
.	16dd\	.	.	.
8D\J	16ff#X\	.	.	.
.	16dd\JJ)	.	.	.
!!LO:LB:g=original
=36	=36	=36	=36	=36
8BL 8G\	(16gg\LL	.	4r	.
.	16ff#\	.	.	.
8D\	16ee\	.	.	.
.	16dd\JJ	.	.	.
8B 8G\	16cc#X\LL	>	8r	.
.	16dd\	.	.	.
8D\	16cc#\	.	8ddd\	.
.	16dd\JJ	.	.	.
.	.	.	(32qqeee/LLL	.
.	.	.	32qqddd/	.
.	.	.	32qqccc#X/JJJ	.
8B 8G\	16ee\LL	.	4ddd\)	.
.	16dd\	.	.	.
8D\J	16b\	.	.	.
.	16g\JJ)	]]	.	.
=37	=37	=37	=37	=37
4AA 4AAA/	8r	f	(16.aa\LL	p >
.	.	.	32gg\K	.
!	!	!	!	!LO:MO:null:mod=.
.	8g 8e 8A/	p	16.ee\	]
!	!	!	!	!LO:MO:null:mod=]
.	.	.	32cc#X\JJk)	.
8r	8gL 8e 8A/	.	4a/	.
!LO:MO:mod=!LO&colon;TX&colon;a&colon;i&colon;t=dolce	!	!	!	!
!LO:TX:b:i:t=dolce.	!	!	!	!
8AA/	8g 8e 8A/	.	.	.
(32qqBB/LLL	.	.	.	.
32qqAA/	.	.	.	.
32qqGG#X/JJJ	.	.	.	.
4AA/)	8g 8e 8A/	.	4r	.
.	8gJ 8e 8A/	.	.	.
=38	=38	=38	=38	=38
4AA 4AAA/	8r	f	(16.bb\LL	.
.	.	.	32aa\K	.
.	8f# 8d 8A/	p	16.ff#\	.
.	.	.	32dd\JJk)	.
8r	8f#L 8d 8A/	.	4a/	.
!LO:MO:mod=!LO&colon;TX&colon;a&colon;i&colon;t=dolce	!	!	!	!
!LO:TX:b:i:t=dolce.	!	!	!	!
8AA/	8f# 8d 8A/	.	.	.
(32qqBB/LLL	.	.	.	.
32qqAA/	.	.	.	.
32qqGG#X/JJJ	.	.	.	.
4AA/)	8f# 8d 8A/	.	4r	.
.	8f#J 8d 8A/	.	.	.
!!LO:PB:g=original
=39	=39	=39	=39	=39
4AA 4AAA/	4e 4c#X 4A/	.	(8a\L	<
.	.	.	32qqb/LLL	.
.	.	.	32qqa/	.
.	.	.	32qqg#X/	.
.	.	.	32qqa/JJJ	.
.	.	.	16b\L	.
.	.	.	16cc#X\JJ	.
4r	4r	.	16dd\LL	.
.	.	.	16ee\	.
.	.	.	16ff#\	.
.	.	.	16ggn\JJ	.
*	*clefF4	*	*	*
4AA 4AAA/	4A 4G 4E 4C#X\	.	16aa\LL	.
.	.	.	16gg\	.
.	.	.	16ee\	.
.	.	.	16ff#\JJ)	[[
=40	=40	=40	=40	=40
4DD/	4A 4F# 4D\	.	16dd/LL	f <
.	.	.	(16d/	.
.	.	.	16f#/)	.
.	.	.	(16d/JJ	.
4r	4r	.	16a/LL)	.
.	.	.	(16f#/	.
.	.	.	16cc/)	.
.	.	.	(16a/JJ	.
4r	4r	.	16dd\LL)	.
.	.	.	(16cc\	.
.	.	.	16ff#\)	.
.	.	.	(16dd\JJ	[[
=41	=41	=41	=41	=41
2.r	2.r	.	16aa\LL)	>
.	.	.	(16ff#\	.
.	.	.	16ccc\)	.
.	.	.	(16bb\JJ	.
.	.	.	16ddd\LL)	.
.	.	.	(16ccc\	.
.	.	.	16bb\	.
.	.	.	16aa\JJ	.
.	.	.	16gg\LL	.
.	.	.	16ff#\	.
.	.	.	16ee\	.
.	.	.	16dd\JJ)	]]
!!LO:LB:g=original
*	*clefG2	*	*	*
=42	=42	=42	=42	=42
4r	4r	.	(16cc#X\LL	.
.	.	.	16dd\	.
.	.	.	16ee\	.
.	.	.	16dd\JJ	.
4r	4r	.	16ccn\LL	.
.	.	.	16b\	.
.	.	.	16a\	.
.	.	.	16g\JJ)	.
4r;	4r;	.	4f#;/	.
.	.	.	(32qqd/LLL	.
.	.	.	32qqf#/	.
.	.	.	32qqe/	.
.	.	.	32qqg/	.
.	.	.	32qqf#/	.
.	.	.	32qqa/	.
.	.	.	32qqg/JJJ	.
!	!	!	!LO:MO:mod=!LO&colon;TX&colon;b&colon;i&colon;t=poco rall. e dimin.	!
!	!	!	!LO:TX:b:t=poco rallent. e dimin.-:problem:dynamics with extension lines	!LO:HP:b:t=poco rallent. e dimin.-:ext=cd
!	!	!	!	!LO:MO:null:mod=.
.	.	.	32qqb\LLL	>
.	.	.	32qqa\	.
.	.	.	32qqcc\	.
.	.	.	32qqb\	.
.	.	.	32qqdd\	.
.	.	.	32qqcc\	.
.	.	.	32qqee\	.
.	.	.	32qqdd\	.
.	.	.	32qqgg\	.
.	.	.	32qqff#\JJJ	.
.	.	.	32qqaa\LLL	.
.	.	.	32qqgg\	.
.	.	.	32qqbb\	.
.	.	.	32qqaa\	.
.	.	.	32qqccc\	.
.	.	.	32qqbb\	.
.	.	.	32qqddd\	.
.	.	.	32qqccc#X\	.
.	.	.	(32qqeee\	.
.	.	.	32qqddd\)	.
.	.	.	(32qqddd\	.
!	!	!	!	!LO:MO:null:mod=.
.	.	.	32qqcccn\JJJ))	]]
!!LO:LB:g=original
=43||	=43||	=43||	=43||	=43||
!	!	!	!	!LO:MO:mod=!null:null
.	.	.	8qdd/	p >
!	!	!	!	!LO:MO:null:mod=p >
4G\	(8bL 8g/	p	(8ddd\L	.
!	!	!	!LO:SIC:s=16.bb\L:v	!
.	8d/J)	.	(16.bb\L	.
!	!	!	!LO:SIC:s=32gg\JJk):v	!
.	.	.	32gg\JJk))	.
4r	(8bL 8g/	.	4dd\	]
.	8d/)	.	.	.
4G\	(8b 8g/	.	4r	.
.	8d/J)	.	.	.
=44	=44	=44	=44	=44
4F#\	(8ccL 8a/	.	(16ddd\LL	>
.	.	.	16ccc\	.
.	8d/J)	.	16aa\	.
.	.	.	16ff#\JJ)	.
4r	(8ccL 8a/	.	4dd\	]
.	8d/)	.	.	.
4F#\	(8cc 8a/	.	4r	.
.	8d/J)	.	.	.
=45	=45	=45	=45	=45
4G\	(8B/L	.	(8.ee\L	>
.	8d/J)	.	.	.
.	.	.	16dd\Jk)	.
4r	(8B/L	.	4b\	]
.	8d/)	.	.	.
4GG/	(8B/	.	4r	.
.	8d/J)	.	.	.
=46	=46	=46	=46	=46
4FF#/	(8cL 8A/	.	(16ee\LL	.
.	.	.	16dd\	.
.	8d/J)	.	16cc#X\	.
.	.	.	16ccn\JJ	.
4r	(8cL 8A/	.	4a/)	.
.	8d/)	.	.	.
4FF#/	(8c 8A/	.	4r	.
.	8d/J)	.	.	.
!!LO:LB:g=original
=47	=47	=47	=47	=47
8GG\L	8B/L	f	16ddd'\LL	f
!	!	!	!LO:MO:mod=!LO&colon;TX&colon;b&colon;i&colon;t=marcato	!
!	!	!	!LO:TX:b:i:t=marcato.	!
.	.	.	16ccc'\	.
!	!LO:MO:mod=*clefF4:null	!	!	!
*	*null	*	*	*
8BB\J	8G<J 8D</	.	16bb'\	.
.	.	.	16aa'\JJ	.
8BB\L	8GL 8D/	.	16gg'\LL	.
.	.	.	16ff#'\	.
8BB\	8G 8D/	.	16ee'\	.
.	.	.	16dd'\JJ	.
8BB\	8G 8D/	.	16cc'\LL	.
.	.	.	16b'\	.
8BB\J	8GJ 8D/	.	16a'\	.
.	.	.	16g'\JJ	.
=48	=48	=48	=48	=48
8C\L	8G<L 8E</	.	8e\L	.
!	!LO:MO:mod=*clefG2:null	!	!	!
*	*null	*	*	*
8C\	8g 8e 8c/	.	[8ggg^\J	.
8C\	8g 8e 8c/	.	16ggg\LL]	.
.	.	.	(16fff#\	.
8C\	8g 8e 8c/	.	16aaa\	.
.	.	.	16ggg\JJ)	.
8C\	8a 8e 8c/	.	(16fff#\LL	.
.	.	.	16eee\	.
8C\J	8aJ 8e 8c/	.	16ddd\	.
.	.	.	16ccc\JJ)	.
=49	=49	=49	=49	=49
8D\L	8gL 8d 8B/	.	(16bb\LL	.
.	.	.	16ccc\	.
8D\	8g 8d 8B/	.	16ccc#X\	.
.	.	.	16ddd\JJ)	.
8D\	8g 8d 8B/	.	(16eee\LL	.
.	.	.	16ddd\	.
8D\J	8gJ 8d 8B/	.	16cccn\	.
.	.	.	16bb\JJ)	.
8DD/L	8f#L 8d 8c/	.	(16ddd\LL	.
.	.	.	16ccc\	.
8DD/J	8f#J 8d 8c/	.	16aa\	.
.	.	.	16ff#\JJ)	.
=50	=50	=50	=50	=50
8GG/L	8gL 8d 8B/	.	(16gg\LL	.
.	.	.	16bb\)	.
8DD/J	8aJ 8f# 8d 8c/	.	(16aa\	.
.	.	.	16ff#\JJ)	.
8r	4a 4f# 4d 4c/	.	(4ff#\	.
8DD/L	.	.	.	.
!	!	!	!LO:MO:mod=!LO&colon;TX&colon;a&colon;i&colon;t=Fine	!
!	!	!	!null	!
!LO:MO:mod=!LO&colon;TX&colon;a&colon;i&colon;t=Fine	!	!	!	!
!LO:TX:b:i:t=Fine.	!	!	!	!
8GG/J	8g 8d 8B/	.	8gg\)	.
8r	8r	.	8r	.
==	==	==	==	==
*-	*-	*-	*-	*-
!!!RDF**kern: > = above
!!!RDF**kern: < = below
!!!system-decoration: s1{(s2,s3)}
!!!filter-modern: sic -sq | shed -e "s/LO:DY:(a|b|rj)/LO:dy:$1/L" | shed -e "s/TX(.*):t=P:/tx$1:t=P:/LG" | modori -m | autostem -r | shed -e "s/yy//" | shed -k -e "s/[<>]//g"
!!!ENC: Filip Voros
!!!END: 2022-07-25
!!!ENC: Urszula Świątek
!!!END: 2022-08-22
!!!EED-modern: Antoni Szymański
!!!END-modern: 2022-09-13
!!!YEC: Copyright 2022 Narodowy Instytut Fryderyka Chopina (https://polishscores.org)
!!!YEM: License CC-BY-4.0 (https://creativecommons.org/licenses/by/4.0)
